src/icons/dashboard.svg

<svg width="16" height="16" viewBox="0 0 16 16" fill="none" xmlns="http://www.w3.org/2000/svg">
<path fill-rule="evenodd" clip-rule="evenodd" d="M3.8888 2.09545C4.95772 1.38122 6.21442 1 7.5 1C9.22391 1 10.8772 1.68482 12.0962 2.90381C13.3152 4.12279 14 5.77609 14 7.5C14 8.78558 13.6188 10.0423 12.9046 11.1112C12.1903 12.1801 11.1752 13.0132 9.98744 13.5052C8.79973 13.9972 7.49279 14.1259 6.23192 13.8751C4.97104 13.6243 3.81285 13.0052 2.90381 12.0962C1.99477 11.1872 1.3757 10.029 1.1249 8.76809C0.874095 7.50721 1.00282 6.20028 1.49479 5.01256C1.98676 3.82484 2.81988 2.80968 3.8888 2.09545ZM4.44437 12.0731C5.34884 12.6774 6.41221 13 7.5 13C8.95821 12.9984 10.3562 12.4184 11.3873 11.3873C12.4184 10.3562 12.9984 8.9582 13 7.5C13 6.4122 12.6774 5.34883 12.0731 4.44436C11.4687 3.53989 10.6098 2.83494 9.60476 2.41866C8.59977 2.00238 7.4939 1.89346 6.42701 2.10568C5.36011 2.3179 4.3801 2.84172 3.61092 3.61091C2.84173 4.3801 2.3179 5.36011 2.10568 6.427C1.89347 7.4939 2.00238 8.59977 2.41867 9.60476C2.83495 10.6098 3.5399 11.4687 4.44437 12.0731ZM10.2932 4L11.0002 4.707L8.85018 6.857C9.00536 7.17915 9.0415 7.54583 8.95221 7.89208C8.86291 8.23833 8.65395 8.5418 8.36233 8.74874C8.07071 8.95567 7.71526 9.05271 7.35895 9.02266C7.00264 8.99261 6.66846 8.83742 6.41561 8.58457C6.16276 8.33173 6.00757 7.99755 5.97752 7.64123C5.94748 7.28492 6.04452 6.92947 6.25145 6.63785C6.45838 6.34624 6.76185 6.13727 7.1081 6.04798C7.45435 5.95868 7.82103 5.99483 8.14318 6.15L10.2932 4ZM7.2224 7.91573C7.30462 7.97068 7.40129 8 7.50018 8C7.63279 8 7.75997 7.94732 7.85374 7.85355C7.9475 7.75979 8.00018 7.63261 8.00018 7.5C8.00018 7.40111 7.97086 7.30444 7.91592 7.22221C7.86098 7.13999 7.78289 7.0759 7.69152 7.03806C7.60016 7.00022 7.49963 6.99031 7.40264 7.00961C7.30565 7.0289 7.21656 7.07652 7.14663 7.14645C7.0767 7.21637 7.02908 7.30546 7.00979 7.40245C6.9905 7.49945 7.0004 7.59998 7.03824 7.69134C7.07609 7.7827 7.14017 7.86079 7.2224 7.91573ZM11.508 5.46704L10.745 6.23004C10.9111 6.63296 10.9977 7.06422 11 7.50004C10.9972 8.1267 10.8244 8.74086 10.5 9.27704L11.235 10.012C11.683 9.34822 11.9447 8.57638 11.9929 7.77698C12.0411 6.97757 11.874 6.17988 11.509 5.46704H11.508ZM8.73285 4.24196C8.34063 4.08478 7.92238 4.00269 7.49985 3.99996C6.57159 3.99996 5.68135 4.36871 5.02497 5.02509C4.3686 5.68147 3.99985 6.57171 3.99985 7.49996C4.00266 8.12663 4.17547 8.74078 4.49985 9.27696L3.76585 10.012C3.2135 9.18819 2.94877 8.20502 3.01281 7.21528C3.07686 6.22554 3.46609 5.28468 4.12 4.53897C4.77391 3.79326 5.65587 3.28446 6.62876 3.09169C7.60166 2.89891 8.61099 3.03295 9.49985 3.47296L8.73285 4.24196Z" fill="white"/>
</svg>

<svg width="16" height="16" xmlns="http://www.w3.org/2000/svg"><path fill-rule="evenodd" clip-rule="evenodd" d="M3.889 2.095a6.5 6.5 0 1 1 7.222 10.81A6.5 6.5 0 0 1 3.89 2.094zm.555 9.978A5.5 5.5 0 0 0 7.5 13 5.506 5.506 0 0 0 13 7.5a5.5 5.5 0 1 0-8.556 4.573zM10.294 4l.706.707-2.15 2.15a1.514 1.514 0 1 1-.707-.707L10.293 4zM7.221 7.916a.5.5 0 1 0 .556-.832.5.5 0 0 0-.556.832zm4.286-2.449l-.763.763c.166.403.253.834.255 1.27a3.463 3.463 0 0 1-.5 1.777l.735.735a4.477 4.477 0 0 0 .274-4.545h-.001zM8.733 4.242A3.373 3.373 0 0 0 7.5 4 3.5 3.5 0 0 0 4 7.5a3.46 3.46 0 0 0 .5 1.777l-.734.735A4.5 4.5 0 0 1 9.5 3.473l-.767.769z"/></svg>
